public/img/svgs/icons/kebab.svg

<svg width="24" height="24" fill="none" xmlns="http://www.w3.org/2000/svg"><path d="M10 12c0 1.1.9 2 2 2s2-.9 2-2-.9-2-2-2-2 .9-2 2zm0-6c0 1.1.9 2 2 2s2-.9 2-2-.9-2-2-2-2 .9-2 2zm0 12c0 1.1.9 2 2 2s2-.9 2-2-.9-2-2-2-2 .9-2 2z" fill="#2B2F51"/></svg>

<svg width="24" height="24" viewBox="0 0 24 24" fill="none" xmlns="http://www.w3.org/2000/svg">
<path d="M10 12C10 13.1 10.9 14 12 14C13.1 14 14 13.1 14 12C14 10.9 13.1 10 12 10C10.9 10 10 10.9 10 12ZM10 6C10 7.1 10.9 8 12 8C13.1 8 14 7.1 14 6C14 4.9 13.1 4 12 4C10.9 4 10 4.9 10 6ZM10 18C10 19.1 10.9 20 12 20C13.1 20 14 19.1 14 18C14 16.9 13.1 16 12 16C10.9 16 10 16.9 10 18Z" fill="#2B2F51"/>
</svg>
